X: 6336
T: Caryn's
R: reel
M: 4/4
K: Dmajor
|:d3f efdB|Afef afef|~e3d fdef|dBAB dgfe|
d3f efdB|Afef afef|~e3d fdef|1 dBAF D2af:|2 dBAF D2dB||
|:Ad~d2 fdad|fdad fedB|~e3d fdef|dBAB defd|
Ad~d2 fdad|fdad fedB|~e3d fdef|1 dBAF D2dB:|2 dBAF D2af||

